svg/add-page.svg

<?xml version="1.0" encoding="UTF-8"?>
<svg xmlns="http://www.w3.org/2000/svg" xmlns:xlink="http://www.w3.org/1999/xlink" width="32" height="32" viewBox="0 0 32 32">
<path fill-rule="nonzero" fill="rgb(0%, 0%, 0%)" fill-opacity="1" d="M 19.464844 1.28125 L 4.480469 1.28125 L 4.480469 30.71875 L 27.519531 30.71875 L 27.519531 9.335938 Z M 19.839844 8.960938 L 19.839844 3.464844 L 25.335938 8.960938 Z M 21.121094 19.199219 L 16.640625 19.199219 L 16.640625 23.679688 L 15.359375 23.679688 L 15.359375 19.199219 L 10.878906 19.199219 L 10.878906 17.921875 L 15.359375 17.921875 L 15.359375 13.441406 L 16.640625 13.441406 L 16.640625 17.921875 L 21.121094 17.921875 Z M 21.121094 19.199219 "/>
</svg>

<svg role="img" viewBox="0 0 32 32" height="32" width="32" xmlns="http://www.w3.org/2000/svg"><path d="M19.465 1.281H4.48V30.72h23.04V9.336Zm.375 7.68V3.465l5.496 5.496Zm1.281 10.238h-4.48v4.48h-1.282V19.2h-4.48v-1.277h4.48v-4.48h1.282v4.48h4.48Zm0 0"/></svg>
